medi/img/inst.svg

<svg width="24" height="24" viewBox="0 0 24 24" fill="none" xmlns="http://www.w3.org/2000/svg">
<g clip-path="url(#clip0_21_50)">
<path d="M16.5 0H7.5C3.3585 0 0 3.3585 0 7.5V16.5C0 20.6415 3.3585 24 7.5 24H16.5C20.6415 24 24 20.6415 24 16.5V7.5C24 3.3585 20.6415 0 16.5 0ZM21.75 16.5C21.75 19.395 19.395 21.75 16.5 21.75H7.5C4.605 21.75 2.25 19.395 2.25 16.5V7.5C2.25 4.605 4.605 2.25 7.5 2.25H16.5C19.395 2.25 21.75 4.605 21.75 7.5V16.5Z" fill="#4FBFA5"/>
<path d="M12 6C8.6865 6 6 8.6865 6 12C6 15.3135 8.6865 18 12 18C15.3135 18 18 15.3135 18 12C18 8.6865 15.3135 6 12 6ZM12 15.75C9.933 15.75 8.25 14.067 8.25 12C8.25 9.9315 9.933 8.25 12 8.25C14.067 8.25 15.75 9.9315 15.75 12C15.75 14.067 14.067 15.75 12 15.75Z" fill="#4FBFA5"/>
<path d="M18.4479 6.34997C18.8895 6.34997 19.2474 5.99203 19.2474 5.55048C19.2474 5.10892 18.8895 4.75098 18.4479 4.75098C18.0064 4.75098 17.6484 5.10892 17.6484 5.55048C17.6484 5.99203 18.0064 6.34997 18.4479 6.34997Z" fill="#4FBFA5"/>
</g>
<defs>
<clipPath id="clip0_21_50">
<rect width="24" height="24" fill="white"/>
</clipPath>
</defs>
</svg>

<svg xmlns="http://www.w3.org/2000/svg" width="24" height="24" fill="none"><g fill="#4FBFA5" clip-path="url(#a)"><path d="M16.5 0h-9A7.5 7.5 0 0 0 0 7.5v9A7.5 7.5 0 0 0 7.5 24h9a7.5 7.5 0 0 0 7.5-7.5v-9A7.5 7.5 0 0 0 16.5 0m5.25 16.5a5.256 5.256 0 0 1-5.25 5.25h-9a5.256 5.256 0 0 1-5.25-5.25v-9A5.256 5.256 0 0 1 7.5 2.25h9a5.256 5.256 0 0 1 5.25 5.25z"/><path d="M12 6a6 6 0 1 0 0 12 6 6 0 0 0 0-12m0 9.75A3.755 3.755 0 0 1 8.25 12 3.754 3.754 0 0 1 12 8.25 3.754 3.754 0 0 1 15.75 12 3.755 3.755 0 0 1 12 15.75M18.448 6.35a.8.8 0 1 0 0-1.599.8.8 0 0 0 0 1.599"/></g><defs><clipPath id="a"><path fill="#fff" d="M0 0h24v24H0z"/></clipPath></defs></svg>
